!!!COM: Beethoven
!!!OTL: 7 Variations on a Quartet by Winter 
!!!Variation: Variation 6b
**function	**harm	**kern	**kern
*M2/4	*M2/4	*staff2	*staff1
*f:	*f:	*clefG2	*clefG2
*tb16	*	*k[b-e-a-d-]	*k[b-e-a-d-]
*	*	*M2/4	*M2/4
*	*	*f:	*f:
8T	8i	(8cJ	8r
=	=	=309	=309
2T	2i	8A-L	2r
.	.	8FJ	.
.	.	8A-L	.
.	.	8cJ)	.
=	=	=310	=310
4T	4V2	4.B- 4.d-	8r
.	.	.	(8eL 8ee
4T	4i6	.	8fJ) 8ff
.	.	8A- 8c	[8dd- [8ddd-
=	=	=311	=311
8T	8V43	(8GL 8B-	8dd-L] 8ddd-]
8T	8i	8FJ 8A-	(8dd-'J 8ddd-'
8T	8V65	8EL 8G	8dd-'L 8ddd-'
8T	8i	8FJ) 8A-	8dd-'J) 8ddd-'
=	=	=312	=312
4T	4iio	4G 4B-	(8dd-L 8ddd-
.	.	.	16bb-L
.	.	.	16ggJJ
4T	4V	8r	8ee)
.	.	(8c	8r
=	=	=313	=313
2T	2i	8A-L	2r
.	.	8FJ	.
.	.	8A-L	.
.	.	8cJ)	.
=	=	=314	=314
*	*	*^	*
4T	4V2	4.B- 4.d-	4r	8r
.	.	.	.	(8eL 8ee
4T	4i6	.	8r	8fJ) 8ff
.	.	[8c	8A-	[8ff [8fff
=	=	=315	=315	=315
4D	4C64/V	8c]	4G	8ff] 8fff]
.	.	4c	.	4ee- 4eee-
4D	4V/V	.	4G	.
.	.	8B	.	8dd 8ddd
*	*	*v	*v	*
=	=	=316	=316
2D	2V	(8CL	4cc 4ccc
.	.	8E-J	.
.	.	8A-L	4r
.	.	8F#J)	.
=	=	=317	=317
4D	4C64/V	4.G	8r
.	.	.	(8cc 8ee-
4D	4V/V	.	8ee-L 8gg
.	.	8GG	8fJ) 8b
=	=	=318	=318
2D	2V	(8CL	4e- 4cc
.	.	8E-J	.
.	.	8A-L	4r
.	.	8F#J)	.
=	=	=319	=319
4D	4C64/V	4.G	8r
.	.	.	(8cc 8ee-
4D	4V/V	.	8ee-L 8gg
.	.	8GG	8fJ) 8b
=	=	=320	=320
4.D	4.V	4.C;	4.e- 4.cc
*-	*-	*-	*-
